Yaru++/apps/scalable/dconf-editor.svg

<svg enable-background="new" height="256" viewBox="0 0 256 256" width="256" xmlns="http://www.w3.org/2000/svg" xmlns:xlink="http://www.w3.org/1999/xlink">
  <linearGradient id="linearGradient4358" gradientUnits="userSpaceOnUse" x1="88" x2="488" y1="88" y2="488">
    <stop offset="0" stop-opacity=".588235"/>
    <stop offset="1" stop-opacity=".205556"/>
  </linearGradient>
  <filter id="filter4380" color-interpolation-filters="sRGB" height="1.088" width="1.106" x="-.05" y="-.04">
    <feGaussianBlur stdDeviation="8.48"/>
  </filter>
  <filter id="filter4346" color-interpolation-filters="sRGB" height="1.022" width="1.026" x="-.01" y="-.01">
    <feGaussianBlur stdDeviation="2.12"/>
  </filter>
  <linearGradient gradientUnits="userSpaceOnUse" x1="256" x2="256" y1="268" y2="-180">
    <stop offset="0" stop-color="#eeeeec"/>
    <stop offset="1" stop-color="#fff"/>
  </linearGradient>
  <path d="m141.84323 74c-70.59344 0-78.18921 7.250835-77.84323 77.98706v146.01294 146.01294c-.34598 70.73623 7.24979 77.98706 77.84323 77.98706h292.31354c70.59344 0 79.78033-7.27652 77.84323-77.98706v-146.01294-146.01294c0-70.737067-7.24979-77.98706-77.84323-77.98706z" filter="url(#filter4346)" opacity=".1" transform="matrix(.5 0 0 .5 -14.116488 -20.825537)"/>
  <path d="m141.84323 74c-70.59344 0-78.18921 7.250835-77.84323 77.98706v146.01294 146.01294c-.34598 70.73623 7.24979 77.98706 77.84323 77.98706h292.31354c70.59344 0 79.78033-7.27652 77.84323-77.98706v-146.01294-146.01294c0-70.737067-7.24979-77.98706-77.84323-77.98706z" fill="url(#linearGradient4358)" filter="url(#filter4380)" opacity=".3" transform="matrix(.5 0 0 .5 -14.116488 -20.825235)"/>
  <path d="m55.695112 13.174464c-36.098811 0-39.983003 3.690159-39.806081 39.689839v74.310167 74.31016c-.176922 35.99969 3.70727 39.68984 39.806081 39.68984h148.387318c36.09881 0 40.77464-3.70276 39.80608-39.68984v-74.31016-74.310167c0-36.00011-3.70727-39.689839-39.80608-39.689839z" opacity=".2"/>
  <path d="m202.95649 15.174464c35.29673 0 39.09461 3.625419 38.92162 38.993529v73.006477 73.00647c.17299 35.36812-3.62489 38.99353-38.92162 38.99353h-146.156758c-35.296716 0-38.921616-3.625-38.921616-38.99353v-73.00647-73.006477c0-35.36853 3.6249-38.993529 38.921616-38.993529z" fill="#a14242"/>
  <path d="m56.810792 239.17447c-35.296731 0-39.094875-3.62603-38.921885-38.99414v-2c-.17299 35.36811 3.625154 38.99414 38.921885 38.99414h146.156238c35.29673 0 38.92188-3.62561 38.92188-38.99414v2c0 35.36853-3.62515 38.99414-38.92188 38.99414z" opacity=".2"/>
  <path d="m17.878906 58.152344v45.810546c16.727788 12.42288 35.488117 26.5249 47.257813 36.42578 16.26832 13.68523 31.868391 28.09006 46.390621 43.39063 4.486 4.72634 15.51758 18.46484 15.51758 18.46484l29.27344 36.92969 12.20898-41.47461s13.56291-44.94087 22.3711-62.83789c12.36737-25.1286 28.15265-48.829613 45.7207-71.029299 1.3228-1.671553 3.36217-3.846239 5.25977-5.923828v-3.740234c.02162-4.421014-.01955-8.346107-.17579-11.830078-.15623-3.483972-.42752-6.526832-.86914-9.183594-.44161-2.656762-1.05413-4.927802-1.88867-6.867188-.41727-.969692-.89012-1.857026-1.42578-2.667968-.53566-.810943-1.13329-1.545017-1.80078-2.210938s-1.40403-1.262246-2.2168-1.796875c-.81276-.534629-1.70234-1.006762-2.67383-1.423828-1.36343-.585335-3.11634-.943809-4.82421-1.330078-10.59438 11.110722-22.97905 24.460332-28.48047 31.412109-18.62446 23.534468-35.56264 48.917531-48.94922 76.117189-4.03958 8.20775-8.18536 18.92775-11.88672 29.37695-11.9802-11.83327-24.46989-23.10114-37.277344-33.875-26.493602-22.286882-72.980245-55.619378-81.53125-61.736326z" fill="#fff" stroke-width=".598341" transform="matrix(1.00000000712 0 0 .99999999988 -.00000775979 -.00000009149)"/>
  <g enable-background="new" transform="matrix(1.3492982 0 0 1.3492982 -69.8514 -61.41512)">
    <g enable-background="new" transform="matrix(-1 0 0 1 319.8747 .00031)">
      <path d="m116.15722 195.99999 12.00001-12" fill="none" stroke="#888" stroke-width="11.999999"/>
      <path d="m114.5 186.34375-31.5 31.5 11.314453 11.3125 31.499997-31.5z" fill="#3b3b3b"/>
    </g>
    <circle cx="147.875" cy="140" fill="#fff" fill-opacity=".19" r="59.931999" stroke="#666" stroke-width="8.135592"/>
  </g>
  <path d="m56.805392 15.174464c-35.296728 0-39.09487 3.626029-38.92188 38.994139v2c-.17299-35.36811 3.625152-38.99414 38.92188-38.99414h146.156238c35.29673 0 38.92188 3.62561 38.92188 38.99414v-2c0-35.36853-3.62515-38.994139-38.92188-38.994139z" fill="#fff" opacity=".3"/>
</svg>

<?xml version="1.0" encoding="UTF-8" standalone="no"?>
<svg
   xmlns:osb="http://www.openswatchbook.org/uri/2009/osb"
   xmlns:dc="http://purl.org/dc/elements/1.1/"
   xmlns:cc="http://creativecommons.org/ns#"
   xmlns:rdf="http://www.w3.org/1999/02/22-rdf-syntax-ns#"
   xmlns:svg="http://www.w3.org/2000/svg"
   xmlns="http://www.w3.org/2000/svg"
   xmlns:xlink="http://www.w3.org/1999/xlink"
   xmlns:sodipodi="http://sodipodi.sourceforge.net/DTD/sodipodi-0.dtd"
   xmlns:inkscape="http://www.inkscape.org/namespaces/inkscape"
   style="enable-background:new"
   width="256"
   height="256"
   version="1.0"
   viewBox="0 0 256 256"
   id="svg51"
   sodipodi:docname="preferences-system-privacy.svg"
   inkscape:version="0.92.3 (2405546, 2018-03-11)">
  <metadata
     id="metadata55">
    <rdf:RDF>
      <cc:Work
         rdf:about="">
        <dc:format>image/svg+xml</dc:format>
        <dc:type
           rdf:resource="http://purl.org/dc/dcmitype/StillImage" />
        <dc:title>
  Adwaita Icon Template
 </dc:title>
      </cc:Work>
    </rdf:RDF>
  </metadata>
  <sodipodi:namedview
     pagecolor="#ffffff"
     bordercolor="#666666"
     borderopacity="1"
     objecttolerance="10"
     gridtolerance="10"
     guidetolerance="10"
     inkscape:pageopacity="0"
     inkscape:pageshadow="2"
     inkscape:window-width="1920"
     inkscape:window-height="1016"
     id="namedview53"
     showgrid="false"
     inkscape:zoom="3.296875"
     inkscape:cx="128"
     inkscape:cy="128"
     inkscape:window-x="0"
     inkscape:window-y="27"
     inkscape:window-maximized="1"
     inkscape:current-layer="g995" />
  <title
     id="title4162">
  Adwaita Icon Template
 </title>
  <defs
     id="defs27">
    <linearGradient
       id="linearGradient1115">
      <stop
         id="stop1103"
         offset="0"
         style="stop-color:#d5d3cf" />
      <stop
         style="stop-color:#e3e2df"
         id="stop1105"
         offset=".038" />
      <stop
         style="stop-color:#c0bfbc"
         id="stop1107"
         offset=".077" />
      <stop
         style="stop-color:#c0bfbc"
         id="stop1109"
         offset=".923" />
      <stop
         style="stop-color:#e3e2df"
         id="stop1111"
         offset=".962" />
      <stop
         id="stop1113"
         offset="1"
         style="stop-color:#d5d3cf" />
    </linearGradient>
    <linearGradient
       id="linearGradient6058">
      <stop
         style="stop-color:#ffffff"
         id="stop6054"
         offset="0" />
      <stop
         style="stop-color:#f6f5f4"
         id="stop6056"
         offset="1" />
    </linearGradient>
    <linearGradient
       id="paint3_linear-2-6-5"
       x2="1"
       gradientTransform="matrix(0,6,-12,0,-64,209.99687)"
       gradientUnits="userSpaceOnUse">
      <stop
         id="stop91-0-7-4"
         stop-color="#C01C27" />
      <stop
         id="stop93-2-5-7"
         offset="1"
         stop-color="#E01B24" />
    </linearGradient>
    <linearGradient
       id="linearGradient1097"
       x1="43.844"
       x2="-60"
       y1="234"
       y2="234"
       gradientTransform="matrix(1.0015061,0,0,0.99993452,72.09037,56.015192)"
       gradientUnits="userSpaceOnUse"
       xlink:href="#linearGradient1115" />
    <radialGradient
       id="radialGradient1099"
       cx="-24.239"
       cy="225.596"
       r="24"
       fx="-24.239"
       fy="225.596"
       gradientTransform="matrix(1.757743,-9.5621778e-8,3.7652438e-8,1.9495846,106.60563,-336.54495)"
       gradientUnits="userSpaceOnUse"
       xlink:href="#linearGradient6058" />
    <linearGradient
       id="linearGradient1383"
       x2="1"
       gradientTransform="matrix(0,6,-12,0,-264,209.99687)"
       gradientUnits="userSpaceOnUse"
       xlink:href="#paint3_linear-2-6-5" />
    <linearGradient
       id="linearGradient4358"
       x1="88"
       x2="488"
       y1="88"
       y2="488"
       gradientUnits="userSpaceOnUse"
       xlink:href="#linearGradient4360" />
    <linearGradient
       id="linearGradient4360">
      <stop
         id="stop4362"
         offset="0"
         style="stop-color:#000000;stop-opacity:0.58823532" />
      <stop
         id="stop4366"
         offset="1"
         style="stop-color:#000000;stop-opacity:0.20555556" />
    </linearGradient>
    <filter
       style="color-interpolation-filters:sRGB"
       id="filter4380"
       width="1.106"
       height="1.088"
       x="-.05"
       y="-.04">
      <feGaussianBlur
         id="feGaussianBlur4382"
         stdDeviation="8.48" />
    </filter>
    <filter
       style="color-interpolation-filters:sRGB"
       id="filter4346"
       width="1.026"
       height="1.022"
       x="-.01"
       y="-.01">
      <feGaussianBlur
         id="feGaussianBlur4348"
         stdDeviation="2.12" />
    </filter>
    <linearGradient
       osb:paint="solid"
       id="linearGradient5606">
      <stop
         style="stop-color:#000000;stop-opacity:1;"
         offset="0"
         id="stop5608" />
    </linearGradient>
    <linearGradient
       osb:paint="solid"
       id="linearGradient4526">
      <stop
         style="stop-color:#ffffff;stop-opacity:1;"
         offset="0"
         id="stop4528" />
    </linearGradient>
    <linearGradient
       osb:paint="gradient"
       id="linearGradient3600-4">
      <stop
         style="stop-color:#f4f4f4;stop-opacity:1"
         offset="0"
         id="stop3602-7" />
      <stop
         style="stop-color:#dbdbdb;stop-opacity:1"
         offset="1"
         id="stop3604-6" />
    </linearGradient>
    <filter
       y="-.02"
       x="-.02"
       height="1.048"
       width="1.048"
       id="filter1060"
       style="color-interpolation-filters:sRGB">
      <feGaussianBlur
         stdDeviation="1.531"
         id="feGaussianBlur1062" />
    </filter>
    <linearGradient
       xlink:href="#linearGradient4245"
       gradientUnits="userSpaceOnUse"
       gradientTransform="matrix(0,-0.453125,-0.45311204,0,253.29054,239.17476)"
       y2="169.657"
       y1="386.295"
       x2="4.414"
       x1="494.345"
       id="linearGradient4226" />
    <linearGradient
       id="linearGradient4245">
      <stop
         style="stop-color:#e8e8e8"
         offset="0"
         id="stop4241" />
      <stop
         style="stop-color:#f5f5f5"
         offset="1"
         id="stop4243" />
    </linearGradient>
    <linearGradient
       xlink:href="#linearGradient4360-5"
       gradientUnits="userSpaceOnUse"
       y2="488"
       y1="88"
       x2="488"
       x1="88"
       id="linearGradient4358-3" />
    <linearGradient
       id="linearGradient4360-5">
      <stop
         style="stop-color:#000000;stop-opacity:0.58823532"
         offset="0"
         id="stop4362-6" />
      <stop
         offset=".88"
         id="stop4364"
         style="stop-color:#000000;stop-opacity:0" />
      <stop
         style="stop-color:#000000"
         offset="1"
         id="stop4366-2" />
    </linearGradient>
    <filter
       y="-.04"
       x="-.05"
       height="1.088"
       width="1.106"
       id="filter4380-9"
       style="color-interpolation-filters:sRGB">
      <feGaussianBlur
         stdDeviation="8.48"
         id="feGaussianBlur4382-1" />
    </filter>
    <filter
       y="-.01"
       x="-.01"
       height="1.022"
       width="1.026"
       id="filter4346-2"
       style="color-interpolation-filters:sRGB">
      <feGaussianBlur
         stdDeviation="2.12"
         id="feGaussianBlur4348-7" />
    </filter>
    <linearGradient
       id="e"
       x1="344"
       x2="340"
       y1="76"
       y2="72"
       gradientTransform="matrix(.25 0 0 .25 180 83)"
       gradientUnits="userSpaceOnUse"
       xlink:href="#a" />
    <linearGradient
       id="a">
      <stop
         id="stop3"
         offset="0"
         stop-color="#d5d3cf" />
      <stop
         id="stop5"
         offset="1"
         stop-color="#fff" />
    </linearGradient>
    <clipPath
       id="d"
       clipPathUnits="userSpaceOnUse">
      <path
         fill="#e74747"
         stroke-width=".25"
         d="M252 116l28-28v-8h-36v36z"
         id="path6" />
    </clipPath>
    <linearGradient
       id="c"
       x1="256"
       x2="256"
       y1="268"
       y2="-180"
       gradientUnits="userSpaceOnUse"
       xlink:href="#b" />
    <linearGradient
       id="b">
      <stop
         id="stop12"
         offset="0"
         stop-color="#eeeeec" />
      <stop
         id="stop14"
         offset="1"
         stop-color="#fff" />
    </linearGradient>
    <filter
       y="-0.050000001"
       x="-0.050000001"
       height="1.096"
       width="1.096"
       id="filter1309"
       style="color-interpolation-filters:sRGB">
      <feGaussianBlur
         stdDeviation="3.795"
         id="feGaussianBlur1311" />
    </filter>
    <filter
       y="-0.0099999998"
       x="-0.0099999998"
       height="1.024"
       width="1.024"
       id="filter1275"
       style="color-interpolation-filters:sRGB">
      <feGaussianBlur
         stdDeviation=".949"
         id="feGaussianBlur1277" />
    </filter>
    <linearGradient
       inkscape:collect="always"
       xlink:href="#b"
       id="linearGradient997"
       gradientUnits="userSpaceOnUse"
       x1="256"
       y1="268"
       x2="256"
       y2="-180" />
  </defs>
  <path
     style="opacity:0.1;filter:url(#filter4346)"
     d="M 141.84323,74 C 71.24979,74 63.65402,81.250835 64,151.98706 V 298 444.01294 C 63.65402,514.74917 71.24979,522 141.84323,522 H 434.15677 C 504.75021,522 513.9371,514.72348 512,444.01294 V 298 151.98706 C 512,81.249993 504.75021,74 434.15677,74 Z"
     transform="matrix(0.5,0,0,0.5,-14.116488,-20.825537)"
     id="path29" />
  <path
     d="M 141.84323,74 C 71.24979,74 63.65402,81.250835 64,151.98706 V 298 444.01294 C 63.65402,514.74917 71.24979,522 141.84323,522 H 434.15677 C 504.75021,522 513.9371,514.72348 512,444.01294 V 298 151.98706 C 512,81.249993 504.75021,74 434.15677,74 Z"
     transform="matrix(0.5,0,0,0.5,-14.116488,-20.825235)"
     style="opacity:0.3;fill:url(#linearGradient4358);filter:url(#filter4380)"
     id="path31" />
  <path
     style="opacity:0.2"
     d="m 55.695112,13.174464 c -36.098811,0 -39.983003,3.690159 -39.806081,39.689839 v 74.310167 74.31016 c -0.176922,35.99969 3.70727,39.68984 39.806081,39.68984 H 204.08243 c 36.09881,0 40.77464,-3.70276 39.80608,-39.68984 V 127.17447 52.864303 c 0,-36.00011 -3.70727,-39.689839 -39.80608,-39.689839 z"
     id="path33" />
  <path
     style="fill:#a14242;fill-opacity:1"
     d="m 202.95649,15.174464 c 35.29673,0 39.09461,3.625419 38.92162,38.993529 v 73.006477 73.00647 c 0.17299,35.36812 -3.62489,38.99353 -38.92162,38.99353 H 56.799732 c -35.296716,0 -38.921616,-3.625 -38.921616,-38.99353 V 127.17447 54.167993 c 0,-35.36853 3.6249,-38.993529 38.921616,-38.993529 z"
     id="path35" />
  <path
     style="opacity:0.2"
     d="m 56.810792,239.17447 c -35.296731,0 -39.094875,-3.62603 -38.921885,-38.99414 v -2 c -0.17299,35.36811 3.625154,38.99414 38.921885,38.99414 H 202.96703 c 35.29673,0 38.92188,-3.62561 38.92188,-38.99414 v 2 c 0,35.36853 -3.62515,38.99414 -38.92188,38.99414 z"
     id="path39" />
  <g
     id="g995"
     transform="translate(-364.30509,27.633674)">
    <g
       transform="matrix(1.510258,0,0,1.510258,-25.515089,-75.523806)"
       id="g941">
      <g
         transform="translate(-219.56151,-137.83923)"
         id="g26">
        <g
           transform="matrix(-0.3,0,0,-0.2128,190.98919,232.9861)"
           style="fill:url(#c)"
           id="g24">
          <g
             transform="matrix(0.75939085,0,0,0.75939085,-135.84382,-74.271377)"
             style="fill:url(#linearGradient997)"
             id="g22">
            <path
               style="fill:#ffffff;stroke-width:0.59834087"
               d="M 17.878906 58.152344 L 17.878906 103.96289 C 34.606694 116.38577 53.367023 130.48779 65.136719 140.38867 C 81.405039 154.0739 97.00511 168.47873 111.52734 183.7793 C 116.01334 188.50564 127.04492 202.24414 127.04492 202.24414 L 156.31836 239.17383 L 168.52734 197.69922 C 168.52734 197.69922 182.09025 152.75835 190.89844 134.86133 C 203.26581 109.73273 219.05109 86.031717 236.61914 63.832031 C 237.94194 62.160478 239.98131 59.985792 241.87891 57.908203 L 241.87891 54.167969 C 241.90053 49.746955 241.85936 45.821862 241.70312 42.337891 C 241.54689 38.853919 241.2756 35.811059 240.83398 33.154297 C 240.39237 30.497535 239.77985 28.226495 238.94531 26.287109 C 238.52804 25.317417 238.05519 24.430083 237.51953 23.619141 C 236.98387 22.808198 236.38624 22.074124 235.71875 21.408203 C 235.05126 20.742282 234.31472 20.145957 233.50195 19.611328 C 232.68919 19.076699 231.79961 18.604566 230.82812 18.1875 C 229.46469 17.602165 227.71178 17.243691 226.00391 16.857422 C 215.40953 27.968144 203.02486 41.317754 197.52344 48.269531 C 178.89898 71.803999 161.9608 97.187062 148.57422 124.38672 C 144.53464 132.59447 140.38886 143.31447 136.6875 153.76367 C 124.7073 141.9304 112.21761 130.66253 99.410156 119.88867 C 72.916554 97.601788 26.429911 64.269292 17.878906 58.152344 z "
               id="path1051"
               transform="matrix(-2.9064459,0,0,-4.0974331,-1079.5237,490.36334)" />
          </g>
        </g>
      </g>
    </g>
    <g
       id="g58"
       transform="matrix(1.3492982,0,0,1.3492982,294.45369,-89.048794)"
       style="enable-background:new">
      <g
         id="g54"
         style="enable-background:new"
         transform="matrix(-1,0,0,1,319.8747,3.1e-4)">
        <path
           inkscape:connector-curvature="0"
           id="path50"
           style="fill:none;stroke:#888888;stroke-width:11.99999905"
           d="m 116.15722,195.99999 12.00001,-12" />
        <path
           style="color:#000000;font-style:normal;font-variant:normal;font-weight:normal;font-stretch:normal;font-size:medium;line-height:normal;font-family:sans-serif;font-variant-ligatures:normal;font-variant-position:normal;font-variant-caps:normal;font-variant-numeric:normal;font-variant-alternates:normal;font-feature-settings:normal;text-indent:0;text-align:start;text-decoration:none;text-decoration-line:none;text-decoration-style:solid;text-decoration-color:#000000;letter-spacing:normal;word-spacing:normal;text-transform:none;writing-mode:lr-tb;direction:ltr;text-orientation:mixed;dominant-baseline:auto;baseline-shift:baseline;text-anchor:start;white-space:normal;shape-padding:0;clip-rule:nonzero;display:inline;overflow:visible;visibility:visible;opacity:1;isolation:auto;mix-blend-mode:normal;color-interpolation:sRGB;color-interpolation-filters:linearRGB;solid-color:#000000;solid-opacity:1;vector-effect:none;fill:#3b3b3b;fill-opacity:1;fill-rule:nonzero;stroke:none;stroke-width:15.99999905;stroke-linecap:butt;stroke-linejoin:miter;stroke-miterlimit:4;stroke-dasharray:none;stroke-dashoffset:0;stroke-opacity:1;color-rendering:auto;image-rendering:auto;shape-rendering:auto;text-rendering:auto;enable-background:accumulate"
           d="m 114.5,186.34375 -31.5,31.5 11.314453,11.3125 31.499997,-31.5 z"
           id="path52"
           inkscape:connector-curvature="0" />
      </g>
      <circle
         id="circle56"
         style="fill:#ffffff;fill-opacity:0.18999999;stroke:#666666;stroke-width:8.13559246"
         r="59.931999"
         cy="140"
         cx="147.875" />
    </g>
  </g>
  <path
     style="opacity:0.3;fill:#ffffff"
     d="m 56.805392,15.174464 c -35.296728,0 -39.09487,3.626029 -38.92188,38.994139 v 2 c -0.17299,-35.36811 3.625152,-38.99414 38.92188,-38.99414 H 202.96163 c 35.29673,0 38.92188,3.62561 38.92188,38.99414 v -2 c 0,-35.36853 -3.62515,-38.994139 -38.92188,-38.994139 z"
     id="path37" />
</svg>
